src/pos-icons/microphone-variant-off.svg

<svg height="24" viewBox="0 0 24 24" width="24" xmlns="http://www.w3.org/2000/svg"><path d="m2 5.27 1.28-1.27 16.72 16.72-1.27 1.28-2.73-2.74c-.14 2.09-1.88 3.74-4 3.74a4 4 0 0 1 -4-4v-1h-1l-.84-8.18c-.34-.35-.63-.76-.83-1.22zm7-2.27a4 4 0 0 1 4 4h-4.18l-2.74-2.74c.73-.76 1.77-1.26 2.92-1.26m2.84 6.82-.02.18-2-2h3.05c-.18.7-.54 1.32-1.03 1.82m-.84 8.18h-1v1a2 2 0 0 0 2 2 2 2 0 0 0 2-2v-1.73l-2.65-2.65zm7-8h2l-1 1 1 1h-2a2 2 0 0 0 -2 2v.18l-1.7-1.68c.6-1.5 2.03-2.5 3.7-2.5m-10 2a1 1 0 0 0 1 1c.21 0 .4-.06.56-.17l-1.39-1.39c-.11.16-.17.35-.17.56z"/></svg>

<?xml version="1.0" encoding="UTF-8"?><!DOCTYPE svg PUBLIC "-//W3C//DTD SVG 1.1//EN" "http://www.w3.org/Graphics/SVG/1.1/DTD/svg11.dtd"><svg xmlns="http://www.w3.org/2000/svg" xmlns:xlink="http://www.w3.org/1999/xlink" version="1.1" id="mdi-microphone-variant-off" width="24" height="24" viewBox="0 0 24 24"><path d="M2,5.27L3.28,4L20,20.72L18.73,22L16,19.26C15.86,21.35 14.12,23 12,23A4,4 0 0,1 8,19V18H7L6.16,9.82C5.82,9.47 5.53,9.06 5.33,8.6L2,5.27M9,3A4,4 0 0,1 13,7H8.82L6.08,4.26C6.81,3.5 7.85,3 9,3M11.84,9.82L11.82,10L9.82,8H12.87C12.69,8.7 12.33,9.32 11.84,9.82M11,18H10V19A2,2 0 0,0 12,21A2,2 0 0,0 14,19V17.27L11.35,14.62L11,18M18,10H20L19,11L20,12H18A2,2 0 0,0 16,14V14.18L14.3,12.5C14.9,11 16.33,10 18,10M8,12A1,1 0 0,0 9,13C9.21,13 9.4,12.94 9.56,12.83L8.17,11.44C8.06,11.6 8,11.79 8,12Z" /></svg>
